assets/Man singer/Light/Flat/man_singer_flat_light.svg

<svg width="32" height="32" viewBox="0 0 32 32" fill="none" xmlns="http://www.w3.org/2000/svg">
<path d="M7.13679 20.9517C4.85271 22.943 3.31411 25.7876 3 29H11V24.0553L7.13679 20.9517Z" fill="#433B6B"/>
<path d="M19 29H27C26.685 25.7933 25.1445 22.9493 22.8607 20.9568L19 24.0553V29Z" fill="#433B6B"/>
<path d="M14.5268 17C12.9732 17 11.4464 17.225 10 17.6485L11.4732 25.4176C12.4375 25.7882 13.4821 26 14.5804 26C15.6116 26 16.6027 25.8147 17.5134 25.4971L19 17.6618C17.5937 17.225 16.0804 17 14.5268 17Z" fill="#F4C6AD"/>
<path d="M12.5 24L13.4867 29H16.5244L17.5 24.0527C16.7461 24.3165 15.9257 24.4536 15.0721 24.4536C14.1741 24.4641 13.2982 24.2954 12.5 24Z" fill="#E6E6E6"/>
<path d="M5.1719 16.8582L11 29H14L11.5 16.5H5.39728C5.21319 16.5 5.09224 16.6922 5.1719 16.8582Z" fill="#00A6ED"/>
<path d="M24.828 16.8582L19 29H16L18.5 16.5H24.6027C24.7868 16.5 24.9077 16.6922 24.828 16.8582Z" fill="#00A6ED"/>
<path d="M11.931 12.218C11.931 13.1748 11.163 13.9504 10.2155 13.9504C9.26807 13.9504 8.5 13.1748 8.5 12.218C8.5 11.2612 9.26807 10.4856 10.2155 10.4856C11.163 10.4856 11.931 11.2612 11.931 12.218Z" fill="#F4C6AD"/>
<path d="M21.9999 12.218C21.9999 13.1748 21.2318 13.9504 20.2844 13.9504C19.3369 13.9504 18.5688 13.1748 18.5688 12.218C18.5688 11.2612 19.3369 10.4856 20.2844 10.4856C21.2318 10.4856 21.9999 11.2612 21.9999 12.218Z" fill="#F4C6AD"/>
<path d="M14.5374 4.5C11.616 4.5 9.30812 6.99357 9.51261 9.92891L9.92161 15.829C10.0969 17.6845 11.5479 19 13.3105 19H16.6896C18.4521 19 19.8934 17.6747 20.0784 15.829L20.4874 9.92891C20.6919 6.99357 18.384 4.5 15.4626 4.5H14.5374V4.5Z" fill="#FFD7C2"/>
<path d="M12.9251 5.88867L10.4396 13.0448H12.389L11.8529 15.9289L15.7421 10.456H13.7244L15.2157 5.88867H12.9251Z" fill="#F92F60"/>
<path d="M11.3168 11.8931C11.4728 11.2435 12.0479 10.771 12.7399 10.771C13.4515 10.771 14.0461 11.2828 14.1825 11.9719C14.2118 12.1195 14.085 12.2573 13.9388 12.2573H11.5995C11.4045 12.2573 11.2681 12.0802 11.3168 11.8931Z" fill="white"/>
<path d="M19.183 11.8931C19.0271 11.2435 18.452 10.771 17.7599 10.771C17.0484 10.771 16.4538 11.2828 16.3173 11.9719C16.2881 12.1195 16.4148 12.2573 16.561 12.2573H18.9004C19.0856 12.2573 19.2318 12.0802 19.183 11.8931Z" fill="white"/>
<path d="M12.0187 12.0016C12.0187 11.4799 12.4378 11.0566 12.9544 11.0566C13.471 11.0566 13.8902 11.4799 13.9097 12.0016C13.9097 12.0902 13.8902 12.1788 13.8707 12.2575H12.0577C12.0284 12.1689 12.0187 12.0902 12.0187 12.0016Z" fill="#7D4533"/>
<path d="M18.4812 12.0016C18.4812 11.4799 18.0621 11.0566 17.5454 11.0566C17.0288 11.0566 16.6097 11.4799 16.5902 12.0016C16.5902 12.0902 16.6097 12.1788 16.6292 12.2575H18.4422C18.4714 12.1689 18.4812 12.0902 18.4812 12.0016Z" fill="#7D4533"/>
<path d="M12.9544 11.46C13.2469 11.46 13.4905 11.706 13.4905 12.0013C13.4905 12.0899 13.471 12.1785 13.4321 12.2573H12.4768C12.4378 12.1785 12.4183 12.0899 12.4183 12.0013C12.4183 11.706 12.662 11.46 12.9544 11.46Z" fill="black"/>
<path d="M17.5455 11.46C17.2531 11.46 17.0094 11.706 17.0094 12.0013C17.0094 12.0899 17.0289 12.1785 17.0776 12.2573H18.0231C18.0621 12.1785 18.0816 12.0899 18.0816 12.0013C18.0816 11.706 17.8379 11.46 17.5455 11.46Z" fill="black"/>
<path d="M12.7984 11.6273C12.7984 11.7197 12.7243 11.7946 12.6327 11.7946C12.5412 11.7946 12.467 11.7197 12.467 11.6273C12.467 11.5349 12.5412 11.46 12.6327 11.46C12.7243 11.46 12.7984 11.5349 12.7984 11.6273Z" fill="white"/>
<path d="M17.4188 11.6273C17.4188 11.7197 17.3446 11.7946 17.2531 11.7946C17.1616 11.7946 17.0874 11.7197 17.0874 11.6273C17.0874 11.5349 17.1616 11.46 17.2531 11.46C17.3446 11.46 17.4188 11.5349 17.4188 11.6273Z" fill="white"/>
<path d="M18.5006 10.2492C18.6078 10.3279 18.7345 10.3673 18.8515 10.3673C19.0269 10.3673 19.1926 10.2885 19.2999 10.1409C19.4948 9.88496 19.4461 9.52076 19.1926 9.32389C19.1634 9.29436 18.2861 8.62501 17.0287 8.78251C16.7071 8.82188 16.4829 9.11718 16.5219 9.43217C16.5609 9.757 16.8435 9.98339 17.1652 9.94402C17.9223 9.84845 18.4405 10.2075 18.4968 10.2465C18.4985 10.2477 18.4997 10.2486 18.5006 10.2492Z" fill="#212121"/>
<path d="M11.1903 10.1411C11.2975 10.2888 11.473 10.3675 11.6484 10.3675C11.7654 10.3675 11.8921 10.3282 11.9896 10.2494C11.9908 10.2488 11.9943 10.2465 11.9998 10.2429C12.0797 10.1905 12.5958 9.85222 13.325 9.94426C13.6466 9.98363 13.9293 9.74739 13.9683 9.43241C14.0073 9.10758 13.7733 8.82212 13.4614 8.78275C12.2067 8.63541 11.3402 9.2918 11.2978 9.32393C11.0443 9.5208 10.9953 9.8852 11.1903 10.1411Z" fill="#212121"/>
<path d="M14.761 11.8497L14.2716 13.5972C14.1755 13.9565 14.4115 14.3157 14.7523 14.3157H15.4777C15.8185 14.3157 16.0545 13.9565 15.9584 13.5972L15.469 11.8497C15.3641 11.471 14.8659 11.471 14.761 11.8497Z" fill="#E5AF93"/>
<path d="M15.2482 15.3966C14.6989 15.3966 14.1781 15.2577 13.7424 15.0195C13.5909 14.9401 13.4394 15.1188 13.5246 15.2676C13.894 15.8531 14.519 16.25 15.2482 16.25C15.9774 16.25 16.6024 15.863 16.9717 15.2676C17.0664 15.1188 16.9054 14.9401 16.7539 15.0195C16.3088 15.2577 15.7974 15.3966 15.2482 15.3966Z" fill="#990838"/>
<path d="M20.374 5.5048L19.9369 5.2784C19.6328 5.12091 19.3477 4.9142 19.1006 4.65827L18.2549 3.78222C17.6182 3.12271 16.6774 2.90616 15.8316 3.2113C15.2804 3.40817 14.6817 3.40817 14.1306 3.2113C13.3893 2.82741 12.4865 2.97506 11.8974 3.58535L10.871 4.65827C10.6335 4.9142 10.3484 5.12091 10.0443 5.2784L9.60714 5.5048C8.80889 5.91822 8.37175 6.83365 8.5333 7.73923L9.11299 11.0171C9.17 11.3419 9.44559 11.5781 9.75919 11.588C9.75919 11.588 9.70217 10.6529 9.66416 10.0623C9.64515 9.75712 9.75919 9.45197 9.98726 9.25511L10.1773 9.07793C10.4339 8.84169 10.5859 8.49717 10.5859 8.13297V7.21754C10.5859 6.96161 10.757 6.72537 11.0041 6.66631C11.6598 6.49898 13.0567 6.20368 15.0048 6.20368C16.953 6.20368 18.3499 6.48913 19.0056 6.66631C19.2527 6.72537 19.4237 6.96161 19.4237 7.21754V8.13297C19.4237 8.49717 19.5758 8.83184 19.8324 9.07793L20.0319 9.26495C20.2505 9.47166 20.374 9.76696 20.355 10.0819C20.317 10.6725 20.26 11.5978 20.26 11.5978C20.5736 11.5781 20.8397 11.3419 20.8967 11.0269L21.4764 7.74908C21.6094 6.83365 21.1723 5.91822 20.374 5.5048Z" fill="#212121"/>
<path d="M27 21C27.5514 21 28 21.4091 28 21.9119V24H26V21.9119C26 21.4091 26.4486 21 27 21Z" fill="#F4C6AD"/>
<path d="M25.68 19.67C27.0386 19.67 28.14 18.5686 28.14 17.21C28.14 15.8514 27.0386 14.75 25.68 14.75C24.3213 14.75 23.22 15.8514 23.22 17.21C23.22 18.5686 24.3213 19.67 25.68 19.67Z" fill="#321B41"/>
<path d="M23.32 16.54L28.09 16.56C28.4 16.56 28.66 16.82 28.66 17.13C28.66 17.45 28.41 17.7 28.09 17.7L23.32 17.68C23 17.68 22.75 17.43 22.75 17.11C22.75 16.79 23 16.54 23.32 16.54Z" fill="#D3D3D3"/>
<path d="M24.87 25.5099C24.91 25.9099 25.24 26.2099 25.64 26.2099C26.03 26.2099 26.37 25.9199 26.42 25.5199L27.14 19.1899L24.21 19.1799L24.87 25.5099Z" fill="#D3D3D3"/>
<path d="M25.65 21.5701C25.9151 21.5701 26.13 21.3552 26.13 21.0901C26.13 20.825 25.9151 20.6101 25.65 20.6101C25.3849 20.6101 25.17 20.825 25.17 21.0901C25.17 21.3552 25.3849 21.5701 25.65 21.5701Z" fill="#F4F4F4"/>
<path d="M23.7849 23.0214C23.369 23.0214 23.0193 23.3843 23.0004 23.8434C22.991 24.153 23.1328 24.4306 23.3407 24.5801C23.1328 24.7295 23.0004 24.9964 23.0004 25.2954C23.0004 25.5943 23.1328 25.8505 23.3407 26.0107C23.1328 26.1601 23.0004 26.427 23.0004 26.726C23.0004 27.0249 23.1328 27.2811 23.3407 27.4413C23.1328 27.6014 22.991 27.8683 23.0004 28.1779C23.0099 28.6477 23.369 29 23.7849 29H27.1211C27.6031 29 28 28.5623 28 28.0071V23.9929C28 23.4484 27.6125 23 27.1211 23H23.7849V23.0214Z" fill="#FFD7C2"/>
</svg>

<svg xmlns="http://www.w3.org/2000/svg" width="32" height="32" fill="none"><path fill="#433B6B" d="M7.137 20.952A12.246 12.246 0 0 0 3 29h8v-4.945l-3.863-3.103ZM19 29h8a12.257 12.257 0 0 0-4.14-8.043L19 24.055V29Z"/><path fill="#F4C6AD" d="M14.527 17c-1.554 0-3.08.225-4.527.648l1.473 7.77c.964.37 2.01.582 3.107.582a8.914 8.914 0 0 0 2.933-.503L19 17.662A15.107 15.107 0 0 0 14.527 17Z"/><path fill="#E6E6E6" d="m12.5 24 .987 5h3.037l.976-4.947a7.35 7.35 0 0 1-2.428.4A7.196 7.196 0 0 1 12.5 24Z"/><path fill="#00A6ED" d="M5.172 16.858 11 29h3l-2.5-12.5H5.397a.25.25 0 0 0-.225.358ZM24.828 16.858 19 29h-3l2.5-12.5h6.103a.25.25 0 0 1 .225.358Z"/><path fill="#F4C6AD" d="M11.931 12.218c0 .957-.768 1.732-1.715 1.732A1.724 1.724 0 0 1 8.5 12.218c0-.957.768-1.732 1.716-1.732.947 0 1.715.775 1.715 1.732ZM22 12.218c0 .957-.768 1.732-1.716 1.732a1.724 1.724 0 0 1-1.715-1.732c0-.957.768-1.732 1.715-1.732.948 0 1.716.775 1.716 1.732Z"/><path fill="#FFD7C2" d="M14.537 4.5c-2.921 0-5.229 2.494-5.024 5.429l.409 5.9C10.097 17.684 11.548 19 13.31 19h3.38c1.762 0 3.203-1.325 3.388-3.171l.41-5.9c.204-2.935-2.104-5.429-5.025-5.429h-.926Z"/><path fill="#F92F60" d="m12.925 5.889-2.485 7.156h1.949l-.536 2.884 3.89-5.473h-2.019l1.492-4.567h-2.29Z"/><path fill="#fff" d="M11.317 11.893a1.458 1.458 0 0 1 1.423-1.122c.711 0 1.306.512 1.442 1.2.03.149-.097.286-.243.286h-2.34a.288.288 0 0 1-.282-.364ZM19.183 11.893a1.458 1.458 0 0 0-1.423-1.122c-.712 0-1.306.512-1.443 1.2-.029.149.098.286.244.286h2.34a.293.293 0 0 0 .282-.364Z"/><path fill="#7D4533" d="M12.019 12.002a.94.94 0 0 1 .935-.945c.517 0 .936.423.956.945 0 .088-.02.177-.04.255h-1.812a.776.776 0 0 1-.04-.255ZM18.481 12.002a.94.94 0 0 0-.936-.945c-.516 0-.935.423-.955.945 0 .088.02.177.04.255h1.812a.779.779 0 0 0 .04-.255Z"/><path fill="#000" d="M12.954 11.46c.293 0 .537.246.537.541a.58.58 0 0 1-.059.256h-.955a.58.58 0 0 1-.059-.256c0-.295.244-.541.536-.541ZM17.546 11.46a.543.543 0 0 0-.537.541c0 .089.02.178.069.256h.945a.58.58 0 0 0 .059-.256.543.543 0 0 0-.537-.541Z"/><path fill="#fff" d="M12.798 11.627a.166.166 0 0 1-.165.168.167.167 0 0 1-.166-.168c0-.092.074-.167.166-.167.091 0 .165.075.165.167ZM17.419 11.627a.167.167 0 0 1-.166.168.167.167 0 0 1-.166-.168c0-.092.075-.167.166-.167.092 0 .166.075.166.167Z"/><path fill="#212121" d="M18.5 10.25a.602.602 0 0 0 .352.117.548.548 0 0 0 .448-.226.585.585 0 0 0-.107-.817c-.03-.03-.907-.699-2.164-.541a.584.584 0 0 0-.507.65.575.575 0 0 0 .643.511c.757-.096 1.276.263 1.332.302l.004.003ZM11.19 10.141a.566.566 0 0 0 .8.108l.01-.006c.08-.053.596-.39 1.325-.299a.585.585 0 0 0 .136-1.162 3.144 3.144 0 0 0-2.163.542.585.585 0 0 0-.108.817Z"/><path fill="#E5AF93" d="m14.761 11.85-.49 1.747c-.096.36.14.719.481.719h.726c.34 0 .577-.36.48-.719l-.489-1.747a.363.363 0 0 0-.708 0Z"/><path fill="#990838" d="M15.248 15.397c-.55 0-1.07-.14-1.506-.377-.151-.08-.303.099-.217.248.369.585.994.982 1.723.982.73 0 1.354-.387 1.724-.982.094-.15-.067-.328-.218-.248a3.18 3.18 0 0 1-1.506.377Z"/><path fill="#212121" d="m20.374 5.505-.437-.227a3.218 3.218 0 0 1-.836-.62l-.846-.876a2.279 2.279 0 0 0-2.423-.57 2.523 2.523 0 0 1-1.701 0 1.888 1.888 0 0 0-2.234.373l-1.026 1.073a3.021 3.021 0 0 1-.827.62l-.437.227c-.798.413-1.235 1.329-1.074 2.234l.58 3.278a.687.687 0 0 0 .646.571s-.057-.935-.095-1.526a.985.985 0 0 1 .323-.807l.19-.177c.257-.236.409-.58.409-.945v-.915c0-.256.171-.493.418-.552.656-.167 2.053-.462 4-.462 1.949 0 3.346.285 4.002.462.247.06.418.296.418.552v.915c0 .364.152.699.408.945l.2.187c.218.207.342.502.323.817-.038.59-.095 1.516-.095 1.516a.697.697 0 0 0 .637-.571l.58-3.278c.132-.915-.305-1.83-1.103-2.244Z"/><path fill="#F4C6AD" d="M27 21c.551 0 1 .41 1 .912V24h-2v-2.088c0-.503.449-.912 1-.912Z"/><path fill="#321B41" d="M25.68 19.67a2.46 2.46 0 1 0 0-4.92 2.46 2.46 0 0 0 0 4.92Z"/><path fill="#D3D3D3" d="m23.32 16.54 4.77.02c.31 0 .57.26.57.57 0 .32-.25.57-.57.57l-4.77-.02c-.32 0-.57-.25-.57-.57 0-.32.25-.57.57-.57ZM24.87 25.51c.04.4.37.7.77.7.39 0 .73-.29.78-.69l.72-6.33-2.93-.01.66 6.33Z"/><path fill="#F4F4F4" d="M25.65 21.57a.48.48 0 1 0 0-.96.48.48 0 0 0 0 .96Z"/><path fill="#FFD7C2" d="M23.785 23.021c-.416 0-.766.363-.785.822-.009.31.133.588.34.737a.876.876 0 0 0-.34.715c0 .3.133.555.34.716a.876.876 0 0 0-.34.715c0 .299.133.555.34.715a.892.892 0 0 0-.34.737c.01.47.369.822.785.822h3.336c.482 0 .879-.438.879-.993v-4.014c0-.545-.387-.993-.879-.993h-3.336v.021Z"/></svg>
